X:1
T:Palm Beach
T:Palm Beach
T:Fox Trot
T:C. Luckyth Roberts
T:Copyright 1915 by Jos. W. Stern &amp; Co
T:Copyright 1915 by Jos. W. Stern &amp; Co
T:Copyright 1915 by Jos. W. Stern &amp; Co
T:Copyright 1915 by Jos. W. Stern &amp; Co
T:Copyright 1915 by Jos. W. Stern &amp; Co
T:Copyright 1915 by Jos. W. Stern &amp; Co
C:C. Luckyth Roberts
Z:Copyright 1915 by Jos. W. Stern & Co
%%score { ( 1 3 ) | ( 2 4 ) }
L:1/8
Q:1/4=170
M:2/2
K:C
V:1 treble nm="Piano" snm="Pno."
V:3 treble 
V:2 bass 
V:4 bass 
V:1
"^Moderato"!p! (g/ | a>)(ga>g) (a c'2) (G |!f! A>)(GA>G) (A c2) z | dcAd- dc [^FA]2 | %4
 [=Fd]2 z2 !arpeggio!!>![GBdg]2 z3/2 (g/ |:!mf! a>)((ga>g)) ((a c'2)) a | %6
 [dad'] [ee']2 [dd']- [dd']>ba>g | a>(ga>g) (a c'2) a | [dad'] [ee']2 [dd']- [dd']>ba>g | %9
 a>((ga>g)) ((a c'2)) a | [Bdb][cc'][^c^c'][d^gd']- [dgd']2 [dgb]2 | %11
 [cec'][dd'][ee'][Bd^fb]- [Bdfb] [Aa]2 [^A^a] | [B=fb][cc'][dd'][B^da]- a g2 g | %13
 a>((ga>g)) ((a c'2)) a | [dad'] [ee']2 [dd']- [dd']>ba>g | a>(ga>g) (a c'2) a | %16
 [dad'] [ee']2 [dd']- [dd']>ba>g | [d^g^a] [dgb]2 [ege']- [ege']2 [egd']2 | %18
 [ead'] [ea^c']2 [ea=c']- [eac']2 [^fc'd']2 | e'd'c'e'- e'c' d'2 |1 %20
 [egc']2 z2 !arpeggio!!>![GB^dg]2 z3/2 (g/ :|2 [egc']2)!<(! G>A B>cd>e!<)! |: %22
!f! [F_Af] [FAf]2 [FAf]- [FAf](AGA) | [Fe] [Fe]2 [Fe]- [Fe](G^FG) | [Ed] [Ed]2 [Ed]- [Ed](E^DE) | %25
 [^Gc] [Gc]2 [Gc]- [Gc] [^gc']2 c | [ac']>c[ac']>c [ac']>c[gc']>c | %27
 [fc'] [cf]2 [cf]- [cf] [^db]2 B | [eb]>B[eb]>B [^db]>B[=db]>B | [^cb] [ce]2 [ce]- (3[ce]AB (3cde | %30
 [F_Af] [FAf]2 [FAf]- [FAf](AGA) | [Fe] [Fe]2 [Fe]- [Fe](G^FG) | [^Gd] [Gd]2 [Gd]- [Gd] (e2 d) | %33
 [Ec] [Ec]2 [Ec]- [Ec]2 (c^c) | [DAd]2 [DA=c]2 [^DAB]2 [DA]2 | [C^D] [CE]2 [^CGB]- [CGB]2 [CGA]2 | %36
 =cBAB- BA G2 |1 [Ec]2 G>A B>cd>e :|2 [Ec]2 z2 !arpeggio!!>![GBdg]2 z3/2 g/ || %39
!mf! a>((ga>g)) ((a c'2)) a | [dad'] [ee']2 [dd']- [dd']>ba>g | a>(ga>g) (a c'2) a | %42
 [dad'] [ee']2 [dd']- [dd']>ba>g | a>((ga>g)) ((a c'2)) a | %44
 [Bdb][cc'][^c^c'][d^gd']- [dgd']2 [dgb]2 | [cec'][dd'][ee'][Bd^fb]- [Bdfb] [Aa]2 [^A^a] | %46
 [B=fb][cc'][dd'][B^da]- a g2 g | a>((ga>g)) ((a c'2)) a | [dad'] [ee']2 [dd']- [dd']>ba>g | %49
 a>(ga>g) (a c'2) a | [dad'] [ee']2 [dd']- [dd']>ba>g | [d^g^a] [dgb]2 [ege']- [ege']2 [egd']2 | %52
 [ead'] [ea^c']2 [ea=c']- [eac']2 [^fc'd']2 | e'd'c'e'- e'c' d'2 | %54
 [egc']2 z2 !>![cegc']2 z (3c/d/^d/ |:[K:F][M:2/2]"_TRIO"!p!!f!"_-" e>c=d>^d e>c=d>^d | %56
 e>c=d>^d e>c=d>^d | e>c=d>^d e>c=d>^d | ec=de- edcA | G d2 d- d>=BG>F | E c2 c- c>BA>G | %61
 F>GA>F (!>!D2 C) z | (!>!D2 C) z (!>!D2 C) (3c/d/^d/ | e>c=d>^d e>c=d>^d | e>c=d>^d e>c=d>^d | %65
 e>c=d>^d e>c=d>^d | ec=de- ed c2 | [ce] [ce]2 [ce]- [ce][=Bd] [Ac]2 | %68
 [ce] [ce]2 [ce]- [ce][=Bd] [Ac]2 | [ce] [ce]2 [ce]- [ce]c d2 | %70
 [Ec]2 z2 !arpeggio!!>![cegc']2 z (3c/d/^d/ | e>c=d>^d e>c=d>^d | e>c=d>^d e>c=d>^d | %73
 e>c=d>^d e>c=d>^d | ec=de- edcA | G d2 d- d>=BG>F | E c2 c- c>BA>G | F>GA>F (!>!D2 C) z | %78
 (!>!D2 C) z (!>!D2 C) z | [A_eg]2 [Aef]>a [Aeg]2 [Aef]>a | [A_eg]2 [Aef]>a [A^cg]2 [Acf]>a | %81
 [Bdg]2 [Bdf]>a [Bdg]2 [Bdf]>a | [Bdg]2 [Bdf]2 [F_A=e]2 [FAd]2 | [F=Ac]2 [F^G=B]2 [FAc]2 [FA^c]2 | %84
 d3 ^d e>=d c2 |1 [FAf]2 c>^c d>^d (!>!e>=c | [Af]2) z2 !>![cegc']2 z (3c/d/^d/ :|2 %87
 [FAf]2 c>^c d>^d (e>=c | [Af]2) z2 !arpeggio!!>![fac'f']2 z2 |] %89
V:2
 z/ |[K:treble] [Gce]4- [Gce]3 z |[K:bass] [G,CE]4- [G,CE]3 z | !>![D,A,C]6 !>![D,A,C]2 | %4
 [G,B,]2 z2 !arpeggio!!>![G,,D,B,]2 z2 |: !>![C,C]2 !>![B,,B,]2 !>![A,,A,]2 !>![G,,G,]2 | %6
!ped! z2 [A,CD]2!ped-up! [G,,G,]2 [G,B,=F]2 | !>![C,C]2 !>![B,,B,]2 !>![A,,A,]2 !>![G,,G,]2 | %8
!ped! z2 [A,CD]2!ped-up! [G,,G,]2 [G,B,=F]2 | !>![C,C]2 !>![B,,B,]2 !>![A,,A,]2 !>![^F,,^F,]2 | %10
 !>![G,,G,]2 !>![=F,,=F,]2 [E,,E,]2 [E,^G,D]2 | [A,,A,]2 [E,A,C] z [D,,D,]2 [D,^F,C]2 | %12
 [G,,G,]2 [G,B,F]2 [G,,G,]2 [G,B,F]2 | !>![C,C]2 !>![B,,B,]2 !>![A,,A,]2 !>![G,,G,]2 | %14
!ped! z2 [A,CD]2!ped-up! [G,,G,]2 [G,B,=F]2 | !>![C,C]2 !>![B,,B,]2 !>![A,,A,]2 !>![G,,G,]2 | %16
!ped! z2 [A,CD]2!ped-up! [G,,G,]2 [G,B,=F]2 | [E,,E,]2 [E,^G,D]2 [E,,E,]2 [E,G,D]2 | %18
 [A,,A,]2 [A,E]2 [A,,A,]2 [_A,,_A,]2 | [G,,G,]2 [G,CE] z [=A,,=A,]2 [B,,B,]2 |1 %20
 [C,C]2 z2 !>![G,,G,]2 z2 :|2 [C,C]2 z2 z4 |: [D,C] [D,C]2 [D,C]- [D,C] z z2 | %23
 [G,B,] [G,B,]2 [G,B,]- [G,B,] z z2 | [C,G,] [C,G,]2 [C,G,]- [C,G,] z z2 | %25
 [E,C] [E,C]2 [E,C]- [E,C] z !>![E,,E,]2 | [F,,F,]2 [A,CF]2 [F,,F,]2 [E,,E,]2 | %27
!ped! [D,,D,]2 [A,CF]2!ped-up! [A,CF] z [G,,G,]2 | [C,C]2 [G,CE]2 [^F,,^F,]2 [=F,,=F,]2 | %29
 [E,,E,]2 [G,A,^C]2 [G,A,C]2 [A,,A,]2 | [D,C] [D,C]2 [D,C]- [D,C] z z2 | %31
 [G,B,] [G,B,]2 [G,B,]- [G,B,] z z2 | [E,B,] [E,B,]2 [E,B,]- [E,B,] z z2 | %33
 [A,C] [A,C]2 [A,C]- [A,C]2 z2 | (([F,,F,]4 [^F,,^F,]4)) | [G,,G,]2 [E,G,] z [E,,E,]2 [E,G,A,]2 | %36
 [D,,D,]2 [D,^F,C] z [G,,G,]2 [G,B,]2 |1 [C,G,]2 z2 z4 :|2 [C,G,]2 z2 !arpeggio!!>![G,,D,B,]2 z2 || %39
 !>![C,C]2 !>![B,,B,]2 !>![A,,A,]2 !>![G,,G,]2 | %40
!ped! z2 [A,CD]2!ped-up! [G,,G,]2!ped-up! [G,B,=F]2 | %41
 !>![C,C]2 !>![B,,B,]2 !>![A,,A,]2 !>![G,,G,]2 |!ped! z2 [A,CD]2!ped-up! [G,,G,]2 [G,B,=F]2 | %43
 !>![C,C]2 !>![B,,B,]2 !>![A,,A,]2 !>![^F,,^F,]2 | !>![G,,G,]2 !>![=F,,=F,]2 [E,,E,]2 [E,^G,D]2 | %45
 [A,,A,]2 [E,A,C] z [D,,D,]2 [D,^F,C]2 | [G,,G,]2 [G,B,F]2 [G,,G,]2 [G,B,F]2 | %47
 !>![C,C]2 !>![B,,B,]2 !>![A,,A,]2 !>![G,,G,]2 |!ped! z2 [A,CD]2!ped-up! [G,,G,]2 [G,B,=F]2 | %49
 !>![C,C]2 !>![B,,B,]2 !>![A,,A,]2 !>![G,,G,]2 |!ped! z2 [A,CD]2!ped-up! [G,,G,]2 [G,B,=F]2 | %51
 [E,,E,]2 [E,^G,D]2 [E,,E,]2 [E,G,D]2 | [A,,A,]2 [A,E]2 [A,,A,]2 [_A,,_A,]2 | %53
 [G,,G,]2 [G,CE] z [=A,,=A,]2 [B,,B,]2 | [C,C]2 z2 !>![C,,C,]2 z2 |: %55
[K:F][M:2/2] z2 [A,C]2 z2 [B,C]2 | z2 [CF]2 z2 [CG]2 | z2 [CF]2 z2 [CE]2 | %58
 z2 [A,CD]2 z2 [^F,A,C]2 | [G,,G,]2 [G,=B,]2 [G,,G,]2 [G,B,]2 | C,2 [_B,C]2 C,2 [B,C]2 | %61
 !arpeggio!!>![F,,C,A,] z z2 (!>!D,2 C,) z | (!>!D,2 C,) z (!>!D,2 C,) z | z2 [A,C]2 z2 [B,C]2 | %64
 z2 [CF]2 z2 [CG]2 | z2 [CF]2 z2 [CE]2 | z2 [A,CD]2 z2 [^F,A,C]2 | [G,,G,]3 [G,,G,]- [G,,G,]4 | %68
 [^F,,^F,]3 [F,,F,]- [F,,F,]4 |!ped! (G,4!ped-up! A,2 =B,2 | %70
 [C,G,]2) z2 !arpeggio!!>![C,,G,,E,]2 z2 | z2 [A,C]2 z2 [B,C]2 | z2 [CF]2 z2 [CG]2 | %73
 z2 [CF]2 z2 [CE]2 | z2 [A,CD]2 z2 [^F,A,C]2 | [G,,G,]2 [G,=B,]2 [G,,G,]2 [G,B,]2 | %76
 C,2 [_B,C]2 C,2 [B,C]2 | !arpeggio!!>![F,,C,A,] z z2 (!>!D,2 C,) z | (!>!D,2 C,) z (!>!D,2 C,) z | %79
 [C,C]2 [F,A,_E]2 [F,,F,]2 [F,A,E]2 | [C,C]2 [F,A,_E]2 [F,,F,]2 [F,A,E]2 | %81
 [B,,B,]2 [F,B,D]2 [F,,F,]2 [F,B,D]2 | [B,,B,]2 [F,B,D]2 [=B,,=B,]4 | %83
 [C,C]2 [D,D]2 [C,C]2 [A,,A,]2 | [G,,G,]2 [G,=B,]2 C,2 [G,_B,C]2 |1 %85
 [F,,F,]2 !tenuto!C4 ((!>![C,C]2 | [F,C]2)) z2 !>![C,,C,]2 z2 :|2 [F,,F,]2 !tenuto!C4 ((!>![C,C]2 | %88
 [F,C]2)) z2 !arpeggio!!>![F,,C,A,]2 z2 |] %89
V:3
 x/ | x8 | x8 | ^F3 F- F2 x2 | x8 |: [ce]2 [ce]2 [ce]4 | x8 | [ce]2 [ce]2 [ce]4 | x8 | %9
 [ce]2 [ce]2 [ce]4 | x8 | x8 | x4 [Bd]4 | [ce]2 [ce]2 [ce]4 | x8 | [ce]2 [ce]2 [ce]4 | x8 | x8 | %18
 x8 | g3 [^fc']- [fc']2 [=fg]2 |1 x8 :|2 x8 |: x8 | x8 | x8 | x8 | x8 | x8 | x8 | x8 | x8 | x8 | %32
 x8 | x8 | x8 | x8 | ^F3 =F- F4 |1 x8 :|2 x8 || [ce]2 [ce]2 [ce]4 | x8 | [ce]2 [ce]2 [ce]4 | x8 | %43
 [ce]2 [ce]2 [ce]4 | x8 | x8 | x4 [Bd]4 | [ce]2 [ce]2 [ce]4 | x8 | [ce]2 [ce]2 [ce]4 | x8 | x8 | %52
 x8 | g3 [^fc']- [fc']2 [=fg]2 | x8 |:[K:F][M:2/2] x8 | x8 | x8 | x8 | =F3 F- F4 | E3 E- E4 | x8 | %62
 x8 | x8 | x8 | x8 | x8 | E3 E- E4 | E3 ^F- F2 =F2 | E3 ^F- F2 =F2 | x8 | x8 | x8 | x8 | x8 | %75
 =F3 F- F4 | E3 E- E4 | x8 | x8 | x8 | x8 | x8 | x8 | x8 | (([F=B]4 [E_B]4)) |1 x6 !>!B2 | x8 :|2 %87
 x6 !>!B2 | x8 |] %89
V:4
 x/ |[K:treble] x8 |[K:bass] x8 | x8 | x8 |: x8 | !>![^F,,^F,]4 x4 | x8 | !>![^F,,^F,]4 x4 | x8 | %10
 x8 | x8 | x8 | x8 | !>![^F,,^F,]4 x4 | x8 | !>![^F,,^F,]4 x4 | x8 | x8 | x8 |1 x8 :|2 x8 |: x8 | %23
 x8 | x8 | x8 | x8 | x8 | x8 | x8 | x8 | x8 | x8 | x8 | x8 | x8 | x8 |1 x8 :|2 x8 || x8 | %40
 !>![^F,,^F,]4 x4 | x8 | !>![^F,,^F,]4 x4 | x8 | x8 | x8 | x8 | x8 | !>![^F,,^F,]4 x4 | x8 | %50
 !>![^F,,^F,]4 x4 | x8 | x8 | x8 | x8 |:[K:F][M:2/2] !>!F,4 !>!G,4 | !>!A,4 !>!B,4 | %57
 !>!A,4 !>!G,4 | !>!^F,4 !>!D,4 | x8 | x8 | x8 | x8 | !>!F,4 !>!G,4 | !>!A,4 !>!B,4 | %65
 !>!A,4 !>!G,4 | !>!^F,4 !>!D,4 | x8 | x8 | G,,8 | x8 | !>!F,4 !>!G,4 | !>!A,4 !>!B,4 | %73
 !>!A,4 !>!G,4 | !>!^F,4 !>!D,4 | x8 | x8 | x8 | x8 | x8 | x8 | x8 | x8 | x8 | x8 |1 x8 | x8 :|2 %87
 x8 | x8 |] %89

